X: 26
T: The Rainbow
R: reel
M: C|
L: 1/8
Z: 2011 John Chambers <jc:trillian.mit.edu>
B: Charles & Samuel Thompson eds "Twenty Four Country Dances", London 1774, p.13 #2
K: G
% - - - - - - - - - - - - - - - - - - - - - - - - -
|: g2dB c(f/g/) ac | BGTG2 AFDd | g2dB c(f/g/) ac | BedF G2G,2 :|
|: d2ef g3b | (af).e.d (^ce).c.A | (af).d.A (ge).^c.A | Bd^ce d2D2 |
dedB cfa2 | cdcA Bdg2 | egce dgAe | dcBA G2G,2 :|
% - - - - - - - - - - - - - - - - - - - - - - - - -
%%begintext align
%% Set & change sides .|. back again :|. hands six
%% half round & back again .|: lead down one Cu.
%% Right & Left at top :|:
%%endtext

%%sep 1 1 500
